icon/lg/elasticpath.svg

<?xml version="1.0" encoding="UTF-8"?>
<svg viewBox="0 0 512 94" version="1.1" xmlns="http://www.w3.org/2000/svg" preserveAspectRatio="xMidYMid" height="1em" width="1em">
  <g>
    <path d="M8.32290752,21.6874088 L24.5180695,5.5798099 C28.13588,1.98204157 32.9439701,-3.55271368e-14 38.0619783,-3.55271368e-14 C43.1447876,-0.0135562708 48.021897,1.99559011 51.6063714,5.5798099 C59.0739468,13.0079733 59.0739468,25.0934888 51.6063714,32.5211706 L35.5811801,48.4597178 C34.0697231,49.966935 32.016583,50.8128014 29.8762643,50.8100737 C26.613166,50.8100737 23.6714916,48.8546729 22.4228541,45.8562233 C21.1742165,42.8577738 21.8644946,39.4064805 24.1718328,37.1115762 L40.1965398,21.1735107 L40.255652,21.11 C41.2743654,19.9701649 41.2707533,18.2619747 40.2728901,17.1311956 L40.1370982,16.9870717 C39.0528388,15.9086746 37.3377926,15.81777 36.1474086,16.7461673 L35.9952114,16.8730457 L23.4769338,29.312 L20.1670949,32.6037267 C14.8250876,38.0036983 14.7689877,46.6375284 19.9988734,52.1054212 L20.2491887,52.3606715 C25.6726885,57.7549789 34.4141823,57.8380728 39.9399019,52.6098743 L40.2264887,52.3313183 L40.2264887,52.3313183 L40.4637773,52.095 L40.4623915,52.0931267 L55.8750101,36.7672115 C59.3854744,33.2752599 64.0186,31.3055204 68.9681139,31.1926741 L69.4189189,31.18754 C74.5374114,31.18754 79.3450172,33.1694432 82.9633119,36.7672115 C86.567016,40.3323056 88.5870844,45.1830457 88.5734544,50.2383735 C88.5734544,55.1789942 86.6961348,59.8292377 83.2782624,63.3885113 L82.9633119,63.7090539 L59.4453644,87.0998459 C55.8608101,90.683889 50.9837107,92.6928579 45.9009713,92.6790358 C40.7829631,92.6790358 35.9753573,90.6976143 32.3570625,87.0998459 C31.7857981,86.5304739 31.2509504,85.9263429 30.7555807,85.291021 L30.3915033,84.808737 L24.1689273,90.9981507 C21.0037634,94.0436588 15.9678813,94.0020929 12.8539729,90.9047577 C9.80631789,87.8733232 9.70185127,83.0110337 12.5697795,79.8543862 L12.7610327,79.6509725 L21.2717149,71.1861368 C16.6283993,69.7624071 12.3743031,67.2250588 8.83959924,63.7085723 C8.74081281,63.610641 8.64541612,63.5107833 8.55340916,63.4089991 C-2.59519308,52.0166352 -2.84742493,33.9388333 7.80863533,22.2502026 C7.96900879,22.0564513 8.14068797,21.8686739 8.32290752,21.6874088 Z M71.4921018,48.1730284 C70.4078424,47.0946313 68.6927961,47.0037267 67.5024121,47.932124 L67.350215,48.0590025 L51.6713738,63.641 L43.7668941,71.503737 C43.0042887,72.2621331 42.7064112,73.3675654 42.9854693,74.4036283 C43.2645273,75.4396912 44.0781252,76.2489821 45.1197886,76.5266488 C46.0963481,76.7869614 47.1342657,76.5429503 47.8885582,75.8865329 L48.0355328,75.7497779 L71.6122626,52.2988647 L71.6122626,52.2988647 C72.6738308,51.106713 72.6235029,49.2983123 71.4921018,48.1730284 Z" fill="#0033CC"/>
    <path d="M130.987071,57.3327681 C134.159374,57.3327681 136.866316,56.1012429 138.41397,54.4083171 L147.697472,59.7182763 C143.906785,64.9497301 138.181531,67.6429992 130.832112,67.6429992 C117.603448,67.6429992 109.403207,58.794512 109.403207,47.3298162 C109.403207,35.8651205 117.758407,27.0166333 129.983711,27.0166333 C141.278776,27.0166333 149.634349,35.7109992 149.634349,47.3298162 C149.640409,48.8806023 149.48494,50.4278622 149.170068,51.9467115 L121.703569,51.9467115 C123.173259,55.9476032 126.731991,57.3327681 130.987071,57.3327681 Z M138.105504,43.3284429 C136.867284,38.8661505 133.386032,37.2498038 129.905263,37.2498038 C125.495224,37.2498038 122.555844,39.4046117 121.472099,43.3284429 L138.105504,43.3284429 Z M156.207632,10.3960995 L167.812131,10.3960995 L167.812131,66.5660769 L156.207632,66.5660769 L156.207632,10.3960995 Z M216.008766,28.0935556 L216.008766,66.5660769 L204.404267,66.5660769 L204.404267,62.9500067 C201.851316,65.8734944 198.06063,67.6429992 192.879185,67.6429992 C182.74486,67.6429992 174.38966,58.794512 174.38966,47.3298162 C174.38966,35.8651205 182.74486,27.0166333 192.879185,27.0166333 C198.06063,27.0166333 201.852769,28.7866197 204.404267,31.7101075 L204.404267,28.0935556 L216.008766,28.0935556 Z M204.404267,47.3298162 C204.404267,41.5589381 200.536585,37.9423862 195.198245,37.9423862 C189.859904,37.9423862 185.992706,41.5589381 185.992706,47.3298162 C185.992706,53.1006944 189.860388,56.7172463 195.198245,56.7172463 C200.442454,56.7172463 204.26809,53.2264779 204.400709,47.6315496 L204.404267,47.3298162 Z M254.149525,55.0243205 C254.149525,63.8728077 246.413193,67.6429992 238.057992,67.6429992 C230.32166,67.6429992 224.442415,64.7195115 221.425071,58.4867511 L231.4824,52.7929335 C232.488181,55.7169029 234.654219,57.3327681 238.057992,57.3327681 C240.843382,57.3327681 242.235592,56.486546 242.235592,54.9477415 C242.235592,54.1859682 241.618991,53.6336111 240.607764,53.1623277 L240.256377,53.0080599 C240.13458,52.9575208 240.008214,52.9078066 239.877586,52.8587412 L239.473217,52.7133154 L239.473217,52.7133154 L239.045098,52.570726 L239.045098,52.570726 L238.595055,52.4299169 L238.595055,52.4299169 L237.636506,52.1494139 L237.636506,52.1494139 L235.261562,51.4850979 L235.261562,51.4850979 L234.424697,51.2407728 L234.424697,51.2407728 L233.859555,51.0684512 L233.859555,51.0684512 L233.290759,50.8873466 L233.290759,50.8873466 L232.720136,50.6964027 L232.720136,50.6964027 L232.149513,50.4945632 L232.149513,50.4945632 L231.580717,50.2807718 L231.580717,50.2807718 L231.015575,50.0539721 C226.889064,48.3404957 223.204679,45.4924788 223.204679,39.635312 C223.204679,31.2482253 230.323112,27.0166333 238.36791,27.0166333 C244.634553,27.0166333 250.204848,29.7864814 253.454146,35.2495987 L243.553229,40.5585947 C242.469968,38.557908 240.922798,37.1732248 238.371784,37.1732248 C236.360706,37.1732248 235.122486,37.9438311 235.122486,39.3280327 C235.121614,40.205079 235.882173,40.7897573 237.099624,41.2778132 L237.478262,41.421527 C237.608841,41.4685959 237.743684,41.5148943 237.882486,41.5606179 L238.310469,41.6962605 L238.310469,41.6962605 L238.760385,41.8296291 L238.760385,41.8296291 L239.472383,42.0279875 L239.472383,42.0279875 L242.093231,42.7222101 L242.093231,42.7222101 L242.649392,42.8759606 L242.649392,42.8759606 L243.495065,43.1214079 L243.495065,43.1214079 L244.063802,43.2966333 C244.158795,43.326692 244.253864,43.3571942 244.348972,43.3881645 L244.919772,43.5797982 C245.014881,43.6127385 245.109951,43.6461957 245.204946,43.6801943 L245.773699,43.8908789 L245.773699,43.8908789 L246.338802,44.1157323 C250.465047,45.8194795 254.149525,48.7609093 254.149525,55.0243205 Z M286.874464,17.7833245 C286.874464,14.013133 290.046283,10.8579817 293.83697,10.8579817 C297.627656,10.8579817 300.79996,14.013133 300.79996,17.7833245 C300.79996,21.553516 297.627656,24.707704 293.83697,24.707704 C290.046283,24.707704 286.874464,21.553516 286.874464,17.7833245 Z M288.036657,28.0935556 L299.641156,28.0935556 L299.641156,66.5660769 L288.03472,66.5660769 L288.036657,28.0935556 Z M306.214811,47.3298162 C306.214811,35.867047 314.956925,27.0166333 326.716383,27.0166333 C334.222214,27.0166333 340.873833,30.9404644 344.200127,36.8654638 L334.066287,42.7134027 C332.750587,40.0201335 329.965682,38.4042684 326.560456,38.4042684 C321.531549,38.4042684 317.818342,42.0203386 317.818342,47.3298162 C317.818342,52.6392939 321.531549,56.2553641 326.560456,56.2553641 C329.964229,56.2553641 332.826614,54.639499 334.066287,51.9467115 L344.200611,57.7175896 C340.874318,63.7191681 334.297757,67.6429992 326.716868,67.6429992 C314.95741,67.6429992 306.214811,58.7964385 306.214811,47.3298162 Z M390.850561,47.3298162 C390.850561,58.7925855 382.495361,67.6429992 372.360552,67.6429992 C367.179108,67.6429992 363.386968,65.8734944 360.83547,62.9500067 L360.83547,81.9550854 L349.229518,81.9550854 L349.229518,28.0935556 L360.833533,28.0935556 L360.833533,31.7101075 C363.386968,28.7866197 367.177171,27.0166333 372.358615,27.0166333 C382.495361,27.0166333 390.850561,35.8651205 390.850561,47.3298162 Z M379.246062,47.3298162 C379.246062,41.5589381 375.377896,37.9419046 370.038587,37.9419046 C364.699278,37.9419046 360.83208,41.5584564 360.83208,47.3293346 C360.83208,53.1002128 364.700731,56.7167647 370.038587,56.7167647 C375.282797,56.7167647 379.109834,53.2264611 379.242502,47.6315491 L379.246062,47.3298162 Z M437.113114,28.0935556 L437.113114,66.5660769 L425.508615,66.5660769 L425.508615,62.9500067 C422.955664,65.8734944 419.164977,67.6429992 413.983532,67.6429992 C403.849208,67.6429992 395.494007,58.794512 395.494007,47.3298162 C395.494007,35.8651205 403.849208,27.0166333 413.983532,27.0166333 C419.164977,27.0166333 422.957117,28.7866197 425.508615,31.7101075 L425.508615,28.0935556 L437.113114,28.0935556 Z M425.508615,47.3298162 C425.508615,41.5589381 421.640933,37.9423862 416.302592,37.9423862 C410.964251,37.9423862 407.097054,41.5589381 407.097054,47.3298162 C407.097054,53.1006944 410.964736,56.7172463 416.302592,56.7172463 C421.640449,56.7172463 425.508615,53.1006944 425.508615,47.3298162 Z M460.322112,39.1739114 L460.322112,52.7929335 C460.322112,55.3734148 462.063587,56.1283624 465.253081,56.1895955 L465.755158,56.1936955 L465.755158,56.1936955 L466.279845,56.1877652 L466.279845,56.1877652 L466.826905,56.1727204 L466.826905,56.1727204 L467.396102,56.149477 L467.396102,56.149477 L468.290883,56.1012429 L468.290883,56.1012429 L468.290883,66.5660769 L467.839206,66.6104881 L467.839206,66.6104881 L466.955054,66.6883567 C466.519342,66.7236389 466.093136,66.7534419 465.676266,66.7777619 L464.854921,66.8190899 L464.854921,66.8190899 L464.058166,66.8457892 C454.381908,67.084841 450.246747,63.9844958 449.082285,57.4848372 L448.994329,56.9503875 L448.994329,56.9503875 L448.919087,56.4010323 C448.884595,56.1226271 448.854756,55.8386298 448.829401,55.5490362 L448.784616,54.9623862 C448.771646,54.7643483 448.760618,54.5638219 448.751481,54.360806 L448.729691,53.7442883 L448.729691,53.7442883 L448.718942,53.1128261 C448.718054,53.0063367 448.717613,52.8992242 448.717613,52.7914886 L448.717613,39.1739114 L442.530387,39.1739114 L442.530387,28.0935556 L448.719065,28.0935556 L448.719065,22.179152 L460.322112,18.6767462 L460.322112,28.0935556 L468.292336,28.0935556 L468.292336,39.1739114 L460.322112,39.1739114 Z M273.508274,39.1739114 L273.508274,52.7929335 C273.508274,55.3734148 275.250044,56.1283624 278.439438,56.1895955 L278.941496,56.1936955 L278.941496,56.1936955 L279.466158,56.1877652 L279.466158,56.1877652 L280.013185,56.1727204 L280.013185,56.1727204 L280.582341,56.149477 L280.582341,56.149477 L281.477045,56.1012429 L281.477045,56.1012429 L281.477045,66.5660769 L281.025368,66.6104881 L281.025368,66.6104881 L280.141217,66.6883567 C279.705504,66.7236389 279.279298,66.7534419 278.862428,66.7777619 L278.041083,66.8190899 L278.041083,66.8190899 L277.244328,66.8457892 C266.783509,67.1042236 262.798771,63.4597835 262.042419,55.8367645 L261.991695,55.2575771 C261.969309,54.9642522 261.951349,54.6653299 261.937643,54.360806 L261.915853,53.7442883 L261.915853,53.7442883 L261.905104,53.1128261 C261.904216,53.0063367 261.903775,52.8992242 261.903775,52.7914886 L261.903775,39.1739114 L255.715096,39.1739114 L255.715096,28.0935556 L261.906196,28.0935556 L261.906196,22.179152 L273.508274,18.6767462 L273.508274,28.0935556 L281.477045,28.0935556 L281.477045,39.1739114 L273.508274,39.1739114 Z M512,42.9441029 L512,66.5660769 L500.397922,66.5660769 L500.397922,44.6365471 C500.397922,39.8684204 497.381547,37.6346253 493.666887,37.6346253 C489.411807,37.6346253 486.471942,40.0967125 486.471942,45.5593482 L486.471942,66.5660769 L474.866475,66.5660769 L474.866475,14.2881431 L486.47049,10.7838108 L486.47049,31.7101075 C488.559532,28.8631987 492.42673,27.0166333 497.5336,27.0166333 C505.346928,27.0166333 512,32.5568112 512,42.9441029 Z" fill="#333333"/>
  </g>
</svg>

<svg width="512" height="94" xmlns="http://www.w3.org/2000/svg" preserveAspectRatio="xMidYMid"><path d="M8.323 21.687 24.518 5.58C28.136 1.982 32.944 0 38.062 0a19.084 19.084 0 0 1 13.544 5.58c7.468 7.428 7.468 19.513 0 26.941L35.581 48.46a8.065 8.065 0 0 1-5.705 2.35 8.068 8.068 0 0 1-7.453-4.954 7.993 7.993 0 0 1 1.749-8.744l16.025-15.938.059-.064a2.995 2.995 0 0 0 .017-3.979l-.136-.144a3.027 3.027 0 0 0-3.99-.24l-.152.126-12.518 12.439-3.31 3.292A13.974 13.974 0 0 0 20 52.105l.25.256c5.424 5.394 14.165 5.477 19.69.249l.287-.279.238-.236-.002-.002 15.413-15.326a19.068 19.068 0 0 1 13.093-5.574l.45-.005c5.12 0 9.927 1.981 13.545 5.58a18.877 18.877 0 0 1 5.61 13.47c0 4.941-1.877 9.591-5.295 13.15l-.315.321L59.445 87.1a19.083 19.083 0 0 1-13.544 5.58c-5.118 0-9.926-1.981-13.544-5.58a19.37 19.37 0 0 1-1.601-1.808l-.364-.482-6.223 6.19c-3.165 3.045-8.201 3.003-11.315-.094a7.993 7.993 0 0 1-.284-11.05l.191-.204 8.51-8.465A30.11 30.11 0 0 1 8.84 63.71a7.566 7.566 0 0 1-.287-.3c-11.148-11.392-11.4-29.47-.744-41.159.16-.194.332-.381.514-.563Zm63.17 26.486a3.027 3.027 0 0 0-3.99-.24l-.153.126-15.679 15.582-7.904 7.863a2.991 2.991 0 0 0-.782 2.9 3.01 3.01 0 0 0 2.135 2.123 3.03 3.03 0 0 0 2.769-.64l.147-.137 23.576-23.451a3 3 0 0 0-.12-4.126Z" fill="#03C"/><path d="M130.987 57.333c3.172 0 5.88-1.232 7.427-2.925l9.283 5.31c-3.79 5.232-9.515 7.925-16.865 7.925-13.229 0-21.429-8.848-21.429-20.313 0-11.465 8.355-20.313 20.58-20.313 11.296 0 19.651 8.694 19.651 20.313.006 1.55-.15 3.098-.464 4.617h-27.466c1.47 4 5.028 5.386 9.283 5.386Zm7.119-14.005c-1.239-4.462-4.72-6.078-8.2-6.078-4.41 0-7.35 2.155-8.434 6.078h16.634Zm18.102-32.932h11.604v56.17h-11.604v-56.17Zm59.8 17.698v38.472h-11.604V62.95c-2.553 2.923-6.343 4.693-11.525 4.693-10.134 0-18.49-8.848-18.49-20.313 0-11.465 8.356-20.313 18.49-20.313 5.182 0 8.974 1.77 11.525 4.693v-3.616h11.605ZM204.405 47.33c0-5.771-3.867-9.388-9.206-9.388-5.338 0-9.205 3.617-9.205 9.388 0 5.77 3.867 9.387 9.205 9.387 5.244 0 9.07-3.49 9.203-9.085l.003-.302Zm49.746 7.694c0 8.849-7.737 12.619-16.092 12.619-7.736 0-13.616-2.923-16.633-9.156l10.057-5.694c1.006 2.924 3.172 4.54 6.576 4.54 2.785 0 4.178-.846 4.178-2.385 0-.762-.617-1.314-1.628-1.786l-.352-.154c-.121-.05-.248-.1-.378-.15l-.405-.145-.428-.142-.45-.141-.958-.28-2.375-.665-.837-.244-.565-.173-.57-.18-.57-.192-.57-.201-.57-.214-.564-.227c-4.127-1.714-7.811-4.562-7.811-10.419 0-8.387 7.118-12.618 15.163-12.618 6.267 0 11.837 2.77 15.086 8.233l-9.9 5.309c-1.084-2.001-2.631-3.386-5.182-3.386-2.011 0-3.25.77-3.25 2.155 0 .877.76 1.462 1.978 1.95l.378.144c.13.047.266.093.404.139l.428.135.45.134.712.198 2.621.694.556.154.846.245.569.176.285.091.57.192.286.1.569.21.565.226c4.126 1.703 7.81 4.645 7.81 10.908Zm32.724-37.24c0-3.77 3.172-6.926 6.963-6.926 3.79 0 6.963 3.155 6.963 6.925s-3.172 6.925-6.963 6.925c-3.79 0-6.963-3.154-6.963-6.925Zm1.163 10.31h11.604v38.472h-11.606l.002-38.472Zm18.178 19.236c0-11.463 8.742-20.313 20.501-20.313 7.506 0 14.158 3.923 17.484 9.848l-10.134 5.848c-1.315-2.693-4.1-4.309-7.506-4.309-5.028 0-8.742 3.616-8.742 8.926 0 5.31 3.714 8.925 8.742 8.925 3.404 0 6.267-1.616 7.506-4.308l10.135 5.77c-3.327 6.002-9.903 9.926-17.484 9.926-11.76 0-20.502-8.847-20.502-20.313Zm84.636 0c0 11.463-8.356 20.313-18.49 20.313-5.182 0-8.974-1.77-11.526-4.693v19.005H349.23V28.094h11.604v3.616c2.553-2.923 6.343-4.693 11.525-4.693 10.136 0 18.492 8.848 18.492 20.313Zm-11.605 0c0-5.771-3.868-9.388-9.207-9.388-5.34 0-9.207 3.616-9.207 9.387 0 5.771 3.869 9.388 9.207 9.388 5.244 0 9.07-3.49 9.204-9.085l.003-.302Zm57.867-19.236v38.472H425.51V62.95c-2.553 2.923-6.344 4.693-11.525 4.693-10.135 0-18.49-8.848-18.49-20.313 0-11.465 8.355-20.313 18.49-20.313 5.181 0 8.973 1.77 11.525 4.693v-3.616h11.604ZM425.51 47.33c0-5.771-3.868-9.388-9.206-9.388-5.339 0-9.206 3.617-9.206 9.388 0 5.77 3.868 9.387 9.206 9.387 5.337 0 9.206-3.616 9.206-9.387Zm34.813-8.156v13.619c0 2.58 1.742 3.335 4.931 3.397l.502.004.525-.006.547-.015.57-.024.894-.048v10.465l-.452.044-.884.078c-.436.036-.862.065-1.279.09l-.821.041-.797.027c-9.676.239-13.811-2.862-14.976-9.361l-.088-.535-.075-.549a23.85 23.85 0 0 1-.09-.852l-.044-.587a29.505 29.505 0 0 1-.034-.601l-.021-.617-.011-.631-.001-.322V39.174h-6.188v-11.08h6.19v-5.915l11.602-3.502v9.417h7.97v11.08h-7.97Zm-186.814 0v13.619c0 2.58 1.742 3.335 4.931 3.397l.502.004.525-.006.547-.015.57-.024.894-.048v10.465l-.452.044-.884.078c-.435.036-.862.065-1.279.09l-.82.041-.798.027c-10.46.258-14.445-3.386-15.202-11.01l-.05-.578a28.81 28.81 0 0 1-.054-.897l-.022-.617-.01-.631c-.002-.107-.002-.214-.002-.322V39.174h-6.189v-11.08h6.191v-5.915l11.602-3.502v9.417h7.969v11.08h-7.969ZM512 42.944v23.622h-11.602v-21.93c0-4.768-3.016-7.001-6.731-7.001-4.255 0-7.195 2.462-7.195 7.924v21.007h-11.606V14.288l11.604-3.504V31.71c2.09-2.847 5.957-4.693 11.064-4.693 7.813 0 14.466 5.54 14.466 15.927Z" fill="#333"/></svg>
